X:1
T:Schottische [4]
M:4/4
L:1/8
S:T. Patterson (southwestern Pa., 1930's)
B:Bayard - Dance to the Fiddle March to the Fife (1981, No. 436)
K:G
D2|B2A2G2B,2|C2 E2 ED E2|D2F2 FE F2|A2G2G3A|
B2A2G2B,2|C2E2 ED E2|D2F2 FE F2|A2G2G2||
z2|B4B2 dc|B2G2G2z2|A4 F2 EF|A2G2D2z2|
B4B2 dc|B2G2G2z2|A4 F2 EF|A2G2G4||
|:B,2G2B,2G2|F2E2 ED E2|D2F2 FE F2|A2G2G2z2:||
B4 B2 AB|c2B2A2G2|A4 A2F2|G2F2E2D2|
B4 B2AB|c2B2A2G2|A4B4|c6||

